X: 36
T:Rory O'More
M:6/8
L:1/8
Q:120
R:Jig
P:AABA
K:G
e|"G"dGG BAG|dGG G2e|dcB BAG|"D"FAA A2B/2c/2|
"G"dGG BAG|Bcd "C"e2d|"G"Bcd "D7"def|"G"gGG G2|::
d|"Em"gfe eBB|"Am"cBA "G"G2F|"C"E2F "G"G2A|Bed "Bm"d2e/2f/2|
"Em"gfe eBB|"Am"cBA "Em"G2F|"Am"EFG "Em"GAB|"D7"Bed "G"d2:|
